X: 6352
T: Casey's Favourite
R: strathspey
M: 4/4
K: Gmajor
|:dc|BGGA Bc d2|e2 dB A2 dc||BGGA BcdB|e2 dB G2:|
ga|bgaf gfed|eaa^g a2 =ga|bgaf gfed|e^def g2 ga|
bgag bgag|eaa^g a2 =ga|bc’ba gfed|eaaf ge||

